X: 192
T:White Cock Aid Above Them All. JaW.191
M:C|
L:1/8
Q:180
S:James Winder Ms, Lancashire, 1835-41
R:Scots Measure
O:England
A:Wyresdale,Lancashire
H:1/8
Z:vmp.Chris Partington, Aug 2004
K:G
"Key as in MS"(ABcd) efed|e2fd dffd|deAd efed|(e2dc BA)GB|A2A2:|!
|:aa gg ff e2|fdde fdde|aa gg ff e2|(dcBA) GBA2|A2:|]
